X:416
T:La mal-aimable
Z:Jack Campin, http://www.campin.me.uk/
F:Jack Campin's Nine-Note Tunebook
% last edit 03-02-2013
M:3/4
L:1/8
Q:3/4=54
N:the upper alternative notes are mine
K:EMin
B2   G2    F2 |E2 CE FG|F2  DF       GA|B2   FB    FB |
B2 (3GAG (3FGF|E2 CE FG|F2  DF       GA|F6           :|
G2   EG    EG |c2 Gc Gc|F2  DF       DF|B2   FB    FB |
E2   CE    CE |A2 EA EA|F2  BF       BF|A2 (3GAG (3FGF|
GE   EG    EG |cG Gc Gc|FD  DF       DF|BF   FB    FB |
E2   CE    CE |A2 EA EA|F2 [B,B][FA] GF|E6           |]

